X: 1
T: the Wizard's Walk
C: Jay Ungar
O: West Hurley, New York
%R: reel
Z: Collected and edited 2014 by John Chambers <jc:trillian.mit.edu>
B: GEMS The Best of the Country Dance and Song Society Diamond Jubilee Music, Dance and Song Contest 1993 p.84
M: C|
L: 1/8
K: Em
% - - - - - - - - - - - - - - - - - - - - - - - - -
"A1"[|\
"Em"e2dc BAGF | GAFG E2B2 |\
"Em"e3f gfef | "Em"ga"B7"fg "Em"e4 |\
"Am"a2gf edcB | cdBc A2E2 |
"Am"A3B cBAB | "Am"cd"E7"Bc "Am"A4 \
"A2"|]|\
"B7"BBfB BfBB | "C"ccgc cgcc |\
"B7"BBfB BfBB | "C(Am)"ccgc cgcc |
"B7"[fB]BBB "C"[gc]ccc | "B7"[fB]BB "C"[gc]ccc |\
"B7"[fB]B^cc ^ddee | ffgg aabb \
"B"|:\
"Em"egbe bgeg | "B7"^dfbf bfdf |
"D"=dfaf afdf | "A"^ceae aece | "C"=cege gece |\
"Em"Bege geBe | "Edim"_Bege geBe | "Em"=Bege "B7"fe^df :|
y8 y8 "Coda"[| "Em"e2dc BAGF | "Em"G2e2 "B7"F2^d2 |\
"Em"e4 B2G2 | E8 |] y8 y8 y8 y8 y8 y8
% - - - - - - - - - - - - - - - - - - - - - - - - -

%%newpage
% sep 3 1 500
% sep 1 1 500
%%center --- 48-bar REELS ---

%%sep 1 1 500
%%sep 1 1 500

